X:936
T:Reel 936
M:4/4
K:Gmaj
L:1/8
fe|dG (3BAG dG (3BAG |cA=fA cAFA|dG (3GGG dG (3BAG |cAfA G2Bc|dG (3GGG BdBd|cAFA GABc|dggf  (3def cB|AGFA G2|gf|agfg abag|afaf gfde|dggf gfgb|agaa g2fe|dggf ggfgag|fdde fgag|agfg abc'a|bgaf gfdc|
